32x32/apps/gtranscribe.svg

<svg xmlns="http://www.w3.org/2000/svg" width="32" height="32" version="1">
 <path style="opacity:0.2" d="M 25.9995,28.606061 V 8.3939394 C 25.9995,7.621697 25.38625,7 24.6245,7 H 6.375 C 5.61325,7 5,7.621697 5,8.3939394 V 28.606061 C 5,29.378303 5.61325,30 6.375,30 h 18.2495 c 0.76175,0 1.375,-0.621697 1.375,-1.393939 z"/>
 <path style="fill:#f4f4f7" d="M 25.9995,27.606061 V 7.3939394 C 25.9995,6.621697 25.38625,6 24.6245,6 H 6.375 C 5.61325,6 5,6.621697 5,7.3939394 V 27.606061 C 5,28.378303 5.61325,29 6.375,29 h 18.2495 c 0.76175,0 1.375,-0.621697 1.375,-1.393939 z"/>
 <path style="fill:#a2a2a2" d="M 25.9995,7 V 4.3333333 C 25.9995,3.5946667 25.38625,3 24.6245,3 H 6.375 C 5.61325,3 5,3.5946667 5,4.3333333 V 7 Z"/>
 <path style="fill:#f4f4f7;opacity:0.1" d="M 6.375 3 C 5.61325 3 5 3.5953178 5 4.3339844 L 5 5.3339844 C 5 4.5953178 5.61325 4 6.375 4 L 24.625 4 C 25.38675 4 26 4.5953178 26 5.3339844 L 26 4.3339844 C 26 3.5953178 25.38675 3 24.625 3 L 6.375 3 z"/>
 <path style="opacity:0.2" d="M 7.46875,2 C 7.2091615,2 7,2.2719098 7,2.609375 v 2.78125 C 7,5.7280902 7.2091615,6 7.46875,6 h 1.0625 C 8.7908385,6 9,5.7280902 9,5.390625 V 2.609375 C 9,2.2719098 8.7908385,2 8.53125,2 Z m 5,0 C 12.209161,2 12,2.2719098 12,2.609375 v 2.78125 C 12,5.7280902 12.209161,6 12.46875,6 h 1.0625 C 13.790839,6 14,5.7280902 14,5.390625 V 2.609375 C 14,2.2719098 13.790839,2 13.53125,2 Z m 5,0 C 17.209161,2 17,2.2719098 17,2.609375 v 2.78125 C 17,5.7280902 17.209161,6 17.46875,6 h 1.0625 C 18.790839,6 19,5.7280902 19,5.390625 V 2.609375 C 19,2.2719098 18.790839,2 18.53125,2 Z m 5,0 C 22.209161,2 22,2.2719098 22,2.609375 v 2.78125 C 22,5.7280902 22.209161,6 22.46875,6 h 1.0625 C 23.790839,6 24,5.7280902 24,5.390625 V 2.609375 C 24,2.2719098 23.790839,2 23.53125,2 Z"/>
 <path style="fill:#f7c13e" d="M 7.46875,1 C 7.2091615,1 7,1.2719098 7,1.609375 v 2.78125 C 7,4.7280902 7.2091615,5 7.46875,5 h 1.0625 C 8.7908385,5 9,4.7280902 9,4.390625 V 1.609375 C 9,1.2719098 8.7908385,1 8.53125,1 Z"/>
 <path style="fill:#f7c13e" d="M 12.46875,1 C 12.209161,1 12,1.2719098 12,1.609375 v 2.78125 C 12,4.7280902 12.209161,5 12.46875,5 h 1.0625 C 13.790839,5 14,4.7280902 14,4.390625 V 1.609375 C 14,1.2719098 13.790839,1 13.53125,1 Z"/>
 <path style="fill:#f7c13e" d="M 17.46875,1 C 17.209161,1 17,1.2719098 17,1.609375 v 2.78125 C 17,4.7280902 17.209161,5 17.46875,5 h 1.0625 C 18.790839,5 19,4.7280902 19,4.390625 V 1.609375 C 19,1.2719098 18.790839,1 18.53125,1 Z"/>
 <path style="fill:#f7c13e" d="M 22.46875,1 C 22.209161,1 22,1.2719098 22,1.609375 v 2.78125 C 22,4.7280902 22.209161,5 22.46875,5 h 1.0625 C 23.790839,5 24,4.7280902 24,4.390625 V 1.609375 C 24,1.2719098 23.790839,1 23.53125,1 Z"/>
 <rect style="fill:#4f4f4f" width="17" height="3" x="7" y="10"/>
 <rect style="fill:#4f4f4f" width="17" height="3" x="7" y="22"/>
 <rect style="fill:#4f4f4f" width="17" height="3" x="7" y="16"/>
 <circle style="opacity:0.2" cx="23" cy="24" r="8"/>
 <circle style="fill:#00b897" cx="23" cy="23" r="8"/>
 <path style="fill:#f4f4f7" d="M 23 17 C 21.893334 17 21 17.85184 21 18.908203 L 21 22.091797 C 21 23.14816 21.893334 24 23 24 C 24.106667 24 25 23.14816 25 22.091797 L 25 18.908203 C 25 17.85184 24.106667 17 23 17 z M 18 21 L 18 22 C 18 24.407209 19.725392 26.43156 22 26.898438 L 22 29 L 24 29 L 24 26.898438 C 26.274608 26.43156 28 24.407209 28 22 L 28 21 L 26 21 L 26 22 C 26 23.668699 24.668699 25 23 25 C 21.331301 25 20 23.668699 20 22 L 20 21 L 18 21 z"/>
 <path style="fill:#f4f4f7;opacity:0.2" d="M 7.46875 1 C 7.2091615 1 7 1.2719098 7 1.609375 L 7 2.609375 C 7 2.2719098 7.2091615 2 7.46875 2 L 8.53125 2 C 8.7908385 2 9 2.2719098 9 2.609375 L 9 1.609375 C 9 1.2719098 8.7908385 1 8.53125 1 L 7.46875 1 z M 12.46875 1 C 12.209161 1 12 1.2719098 12 1.609375 L 12 2.609375 C 12 2.2719098 12.209161 2 12.46875 2 L 13.53125 2 C 13.790839 2 14 2.2719098 14 2.609375 L 14 1.609375 C 14 1.2719098 13.790839 1 13.53125 1 L 12.46875 1 z M 17.46875 1 C 17.209161 1 17 1.2719098 17 1.609375 L 17 2.609375 C 17 2.2719098 17.209161 2 17.46875 2 L 18.53125 2 C 18.790839 2 19 2.2719098 19 2.609375 L 19 1.609375 C 19 1.2719098 18.790839 1 18.53125 1 L 17.46875 1 z M 22.46875 1 C 22.209161 1 22 1.2719098 22 1.609375 L 22 2.609375 C 22 2.2719098 22.209161 2 22.46875 2 L 23.53125 2 C 23.790839 2 24 2.2719098 24 2.609375 L 24 1.609375 C 24 1.2719098 23.790839 1 23.53125 1 L 22.46875 1 z"/>
</svg>

<svg xmlns="http://www.w3.org/2000/svg" width="32" height="32" version="1"><path style="opacity:.2" d="M26 28.606V8.394C26 7.622 25.386 7 24.625 7H6.375C5.613 7 5 7.622 5 8.394v20.212C5 29.378 5.613 30 6.375 30h18.25c.761 0 1.375-.622 1.375-1.394z"/><path style="fill:#f4f4f7" d="M26 27.606V7.394C26 6.622 25.386 6 24.625 6H6.375C5.613 6 5 6.622 5 7.394v20.212C5 28.378 5.613 29 6.375 29h18.25c.761 0 1.375-.622 1.375-1.394z"/><path style="fill:#a2a2a2" d="M26 7V4.333C26 3.595 25.386 3 24.625 3H6.375C5.613 3 5 3.595 5 4.333V7z"/><path style="fill:#f4f4f7;opacity:.1" d="M6.375 3C5.613 3 5 3.595 5 4.334v1C5 4.595 5.613 4 6.375 4h18.25C25.387 4 26 4.595 26 5.334v-1C26 3.595 25.387 3 24.625 3H6.375z"/><path style="opacity:.2" d="M7.469 2C7.209 2 7 2.272 7 2.61v2.78c0 .338.21.61.469.61H8.53C8.791 6 9 5.728 9 5.39V2.61C9 2.271 8.79 2 8.531 2zm5 0c-.26 0-.469.272-.469.61v2.78c0 .338.21.61.469.61h1.062c.26 0 .469-.272.469-.61V2.61c0-.338-.21-.61-.469-.61zm5 0c-.26 0-.469.272-.469.61v2.78c0 .338.21.61.469.61h1.062c.26 0 .469-.272.469-.61V2.61c0-.338-.21-.61-.469-.61zm5 0c-.26 0-.469.272-.469.61v2.78c0 .338.21.61.469.61h1.062c.26 0 .469-.272.469-.61V2.61c0-.338-.21-.61-.469-.61z"/><path style="fill:#f7c13e" d="M7.469 1C7.209 1 7 1.272 7 1.61v2.78c0 .338.21.61.469.61H8.53C8.791 5 9 4.728 9 4.39V1.61C9 1.271 8.79 1 8.531 1zM12.469 1c-.26 0-.469.272-.469.61v2.78c0 .338.21.61.469.61h1.062c.26 0 .469-.272.469-.61V1.61c0-.338-.21-.61-.469-.61zM17.469 1c-.26 0-.469.272-.469.61v2.78c0 .338.21.61.469.61h1.062c.26 0 .469-.272.469-.61V1.61c0-.338-.21-.61-.469-.61zM22.469 1c-.26 0-.469.272-.469.61v2.78c0 .338.21.61.469.61h1.062c.26 0 .469-.272.469-.61V1.61c0-.338-.21-.61-.469-.61z"/><path style="fill:#4f4f4f" d="M7 10h17v3H7zM7 22h17v3H7zM7 16h17v3H7z"/><circle style="opacity:.2" cx="23" cy="24" r="8"/><circle style="fill:#00b897" cx="23" cy="23" r="8"/><path style="fill:#f4f4f7" d="M23 17c-1.107 0-2 .852-2 1.908v3.184c0 1.056.893 1.908 2 1.908s2-.852 2-1.908v-3.184C25 17.852 24.107 17 23 17zm-5 4v1c0 2.407 1.725 4.432 4 4.898V29h2v-2.102c2.275-.466 4-2.49 4-4.898v-1h-2v1c0 1.669-1.331 3-3 3s-3-1.331-3-3v-1h-2z"/><path style="fill:#f4f4f7;opacity:.2" d="M7.469 1C7.209 1 7 1.272 7 1.61v1c0-.338.21-.61.469-.61H8.53c.26 0 .469.272.469.61v-1C9 1.271 8.79 1 8.531 1H7.47zm5 0c-.26 0-.469.272-.469.61v1c0-.338.21-.61.469-.61h1.062c.26 0 .469.272.469.61v-1c0-.338-.21-.61-.469-.61H12.47zm5 0c-.26 0-.469.272-.469.61v1c0-.338.21-.61.469-.61h1.062c.26 0 .469.272.469.61v-1c0-.338-.21-.61-.469-.61H17.47zm5 0c-.26 0-.469.272-.469.61v1c0-.338.21-.61.469-.61h1.062c.26 0 .469.272.469.61v-1c0-.338-.21-.61-.469-.61H22.47z"/></svg>
